X: 75
T: Reel of The Royal Scots, The
R:Reel
N:Devised by Roy Goldring to celebrate the 350th Anniversary
N:of The Royal Scots (The Royal Regiment) in 1983.
B:RSCDS Leaflet (1983)
Z:Pipe Major C.T.Clark
Z:1997 by John Chambers <jc:trillian.mit.edu>
Z:trillian.mit.edu/~jc/
M:2/2
L:1/8
%
K:D
f2 |\
"D" Adde def2 | Aafd "A7" e2cA | "D" d2de "Bm" defd | "Em" Beed "A7" e2f2   |
"D" Adde def2 | Aafd "A7" e2cA | "D" d2de "Bm" f2ed | "A7" egfe "D"  d2 fg ||
|| \
"D" afAd f2A2 | defd "A7" cecA | "D" d2f2 "Bm" defd | "Em" Beed "A7" e2 fg  |
"D" afAd f2A2 | defd "A7" cecA | "D" d2de "Bm" f2ed | "A7" egfe "D"  d2 fe ||
|| \
"D" d2dB A2AB | A2af "A7" egfe | "D" d2de "Bm" defd | "Em" Beed "A7" e2 fe  |
"D" d2dB A2AB | A2af "A7" egfe | "D" d2de "Bm" f2ed | "A7" egfe "D"  d2 fg ||
|| \
"D" a2af Aaf2 | Aaaf "A7" egfe | "D" d2f2 "Bm" defd | "Em" Beed "A7" e2 fg  |
"D" a2af Aaf2 | Aaaf "A7" egfe | "D" d2de "Bm" f2ed | "A7" egfe "D"  d2 ze  |]

%%sep 2 1 500
%%sep 1 1 500

